!!!OTL: Gongchandanglai haozhuzhang
!!!ARE: Asia, China,ÿGuangdong Huidong
!! II, 381
!!!SCT: C1972
!!!YEM: Copyright 1995, estate of Helmut Schaffrath.
**kern
*ICvox
*Ivox
*M2/4
*k[f#c#g#]
*A:
{8b
8b
8b
8ee
=1
4cc#
4b}
=2
{8b
16b
16b
8b
8ee
=3
4cc#
4cc#
=4
8b
16b
16b
8b
8ee
=5
4cc#
4cc#}
=6
{8b
8b
8b
8ee
=7
4cc#
4b}
=8
{8b
16b
16a
8f#
8a
=9
8b
4b
8cc#
=10
8b
16b
16a
8f#
8a
=11
2e}
=12
{8B
8e
8B
8e
=13
8f#
8e
8f#
8e}
=14
{8a
16f#
16a
8f#
8f#
=15
8a
16f#
16a
8b
8b
=16
8ee
4ee
8cc#
=17
8ff#
8ff#
4ee
=18
8cc#
16cc#
16b
8a
8f#
=19
4b
4r}
=20
{8b
16b
16a
8f#
8a
=21
2e}
==
!!!AGN: Xiaodiao
!!!AMT: simple duple
!!!AIN: vox
!!!EED: Helmut Schaffrath
!!!EEV: 1.0
*-
